assets/images/filter.svg

<svg width="21" height="19" viewBox="0 0 21 19" fill="none" xmlns="http://www.w3.org/2000/svg">
<path d="M6.06755 0C4.85404 0 3.82256 0.819119 3.48884 1.94162H0.728106C0.303377 1.94162 0 2.27533 0 2.70006C0 3.12479 0.333715 3.4585 0.758443 3.4585H3.51918C3.82256 4.581 4.88438 5.40012 6.09789 5.40012C7.34173 5.40012 8.37322 4.581 8.70693 3.4585H19.9016C20.3263 3.4585 20.66 3.12479 20.66 2.70006C20.66 2.27533 20.3263 1.94162 19.9016 1.94162H8.70693C8.34288 0.819119 7.3114 0 6.06755 0ZM6.09789 1.51689C6.73498 1.51689 7.28106 2.03263 7.28106 2.70006C7.28106 3.36749 6.73498 3.88323 6.09789 3.88323C5.46079 3.88323 4.91471 3.36749 4.91471 2.70006C4.91471 2.03263 5.46079 1.51689 6.09789 1.51689Z" fill="#A4A4A4"/>
<path d="M15.1992 6.06755C13.9857 6.06755 12.9542 6.88667 12.6205 8.00917H0.758443C0.303377 8.00917 0 8.34288 0 8.76761C0 9.19234 0.333715 9.52605 0.758443 9.52605H12.6205C12.9239 10.6486 13.9857 11.4677 15.1992 11.4677C16.4431 11.4677 17.4745 10.6486 17.8083 9.52605H19.9016C20.3263 9.52605 20.66 9.19234 20.66 8.76761C20.66 8.34288 20.3263 8.00917 19.9016 8.00917H17.8083C17.4745 6.88667 16.4431 6.06755 15.1992 6.06755ZM15.2295 7.58444C15.8666 7.58444 16.4127 8.10018 16.4127 8.76761C16.4127 9.43504 15.8666 9.95078 15.2295 9.95078C14.5925 9.95078 14.0464 9.43504 14.0464 8.76761C14.0464 8.10018 14.5621 7.58444 15.2295 7.58444Z" fill="#A4A4A4"/>
<path d="M9.70808 12.7419C8.49457 12.7419 7.46308 13.561 7.12937 14.6835H0.758443C0.303377 14.6835 0 15.0172 0 15.4419C0 15.8666 0.333715 16.2004 0.758443 16.2004H7.15971C7.46308 17.3229 8.5249 18.142 9.73841 18.142C10.9823 18.142 12.0137 17.3229 12.3475 16.2004H19.9016C20.3263 16.2004 20.66 15.8666 20.66 15.4419C20.66 15.0172 20.3263 14.6835 19.9016 14.6835H12.3171C11.9834 13.561 10.9519 12.7419 9.70808 12.7419ZM9.73841 14.2587C10.3755 14.2587 10.9216 14.7745 10.9216 15.4419C10.9216 16.1093 10.3755 16.6251 9.73841 16.6251C9.10132 16.6251 8.55524 16.1093 8.55524 15.4419C8.58558 14.7745 9.10132 14.2587 9.73841 14.2587Z" fill="#A4A4A4"/>
</svg>

<svg width="21" height="19" fill="none" xmlns="http://www.w3.org/2000/svg"><path d="M6.068 0c-1.214 0-2.245.82-2.58 1.942H.729C.303 1.942 0 2.275 0 2.7s.334.758.758.758H3.52C3.823 4.582 4.884 5.4 6.098 5.4a2.712 2.712 0 002.609-1.942h11.195a.751.751 0 00.758-.758.751.751 0 00-.758-.758H8.707C8.343.819 7.31 0 6.067 0zm.03 1.517c.637 0 1.183.516 1.183 1.183s-.546 1.183-1.183 1.183A1.185 1.185 0 014.915 2.7c0-.667.546-1.183 1.183-1.183zM15.2 6.068a2.704 2.704 0 00-2.58 1.941H.758c-.455 0-.758.334-.758.759 0 .424.334.758.758.758h11.863c.303 1.123 1.365 1.942 2.578 1.942 1.244 0 2.275-.82 2.61-1.942h2.093a.751.751 0 00.758-.758.751.751 0 00-.758-.759h-2.094A2.712 2.712 0 0015.2 6.068zm.03 1.516a1.185 1.185 0 010 2.366 1.185 1.185 0 01-1.184-1.182c0-.668.516-1.184 1.184-1.184zm-5.522 5.158c-1.213 0-2.245.819-2.579 1.941H.76c-.456 0-.759.334-.759.759s.334.758.758.758H7.16c.303 1.123 1.365 1.942 2.578 1.942 1.244 0 2.276-.82 2.61-1.942h7.554a.751.751 0 00.758-.758.751.751 0 00-.758-.758h-7.585a2.712 2.712 0 00-2.609-1.942zm.03 1.517c.638 0 1.184.515 1.184 1.183a1.185 1.185 0 01-2.366 0c.03-.668.545-1.183 1.182-1.183z" fill="#A4A4A4"/></svg>
